!!!!SEGMENT: Jos/Jos0602e-Missa_Lhomme_arme_sexti_toni-Agnus.krn
!!!COM: Josquin des Prez
!!!CDT: ~1450-1521/08/27
!!!OPR: Missa L'homme arm&eacute; sexti toni
!!!ONM: 5
!!!OTL: Agnus dei
!!!AGN: Mass; Agnus dei
!!!SCT: NJE 6.2
!!!SCA: New Josquin Edition 6.2
!!!jrpid: Jos0602e
!!!voices: 4
!!!voices-OPR: 4(-6)
**kern	**text	**kern	**text	**kern	**text	**kern	**text	**kern	**text	**kern	**text
*staff6	*	*staff5	*	*staff4	*	*staff3	*	*staff2	*	*staff1	*
*Ivox	*	*Ivox	*	*Ivox	*	*Ivox	*	*Ivox	*	*Ivox	*
*I"Bassus	*	*I"Tenor	*	*I"Altus2	*	*I"Altus1	*	*I"Superius2	*	*I"Superius1	*
*I'B	*	*I'T	*	*I'A2	*	*I'A1	*	*I'S2	*	*I'S1	*
*>[A,B,C]	*	*>[A,B,C]	*	*>[A,B,C]	*	*>[A,B,C]	*	*>[A,B,C]	*	*>[A,B,C]	*
*>Agnus1[A]	*	*>Agnus1[A]	*	*>Agnus1[A]	*	*>Agnus1[A]	*	*>Agnus1[A]	*	*>Agnus1[A]	*
*>Agnus2[B]	*	*>Agnus2[B]	*	*>Agnus2[B]	*	*>Agnus2[B]	*	*>Agnus2[B]	*	*>Agnus2[B]	*
*>Agnus3[C]	*	*>Agnus3[C]	*	*>Agnus3[C]	*	*>Agnus3[C]	*	*>Agnus3[C]	*	*>Agnus3[C]	*
*clefF4	*	*clefGv2	*	*clefGv2	*	*clefGv2	*	*clefG2	*	*clefG2	*
*k[b-]	*	*k[b-]	*	*k[b-]	*	*k[b-]	*	*k[b-]	*	*k[b-]	*
*>A	*	*>A	*	*>A	*	*>A	*	*>A	*	*>A	*
*M3/1	*	*M3/1	*	*M3/1	*	*M3/1	*	*M3/1	*	*M3/1	*
*met(O)	*	*met(O)	*	*met(O)	*	*met(O)	*	*met(O)	*	*met(O)	*
!!!OMD: Agnus dei I
!!section: Agnus dei I
=1-	=1-	=1-	=1-	=1-	=1-	=1-	=1-	=1-	=1-	=1-	=1-
0.r	.	0.r	.	0.r	.	0F	A-	0.r	.	0.r	.
.	.	.	.	.	.	1F	-gnus	.	.	.	.
=2	=2	=2	=2	=2	=2	=2	=2	=2	=2	=2	=2
0.r	.	0.r	.	0.r	.	1F	de-	0.r	.	0f	A-
.	.	.	.	.	.	1.B-	.	.	.	.	.
.	.	.	.	.	.	.	.	.	.	1f	-gnus
.	.	.	.	.	.	2A/	.	.	.	.	.
=3	=3	=3	=3	=3	=3	=3	=3	=3	=3	=3	=3
0.r	.	0.r	.	0.r	.	1A	.	0.r	.	1f	de-
.	.	.	.	.	.	0G	.	.	.	1.b-	.
.	.	.	.	.	.	.	.	.	.	2a/	.
=4	=4	=4	=4	=4	=4	=4	=4	=4	=4	=4	=4
[0.FF	A-	0F	A-	0.r	.	1.F	.	0.r	.	1a	.
.	.	.	.	.	.	.	.	.	.	1.cc	.
.	.	.	.	.	.	2E/	.	.	.	.	.
.	.	1F	-gnus	.	.	1C	.	.	.	.	.
.	.	.	.	.	.	.	.	.	.	2b-\	.
=5	=5	=5	=5	=5	=5	=5	=5	=5	=5	=5	=5
1FF]	.	1F	de-	0.r	.	0.D	.	0.r	.	1a	.
0GG	-gnus	1.B-	.	.	.	.	.	.	.	0g	.
.	.	2A\	.	.	.	.	.	.	.	.	.
=6	=6	=6	=6	=6	=6	=6	=6	=6	=6	=6	=6
1AA	de-	1A	.	0.r	.	1C	-i,	0.r	.	0f	.
1BB-	.	0G	.	.	.	1r	.	.	.	.	.
1C	.	.	.	.	.	1c	a-	.	.	1e	.
=7	=7	=7	=7	=7	=7	=7	=7	=7	=7	=7	=7
0D	-i,	0F	-i,	0.r	.	2A/	-gnus	0.r	.	0f	-i,
.	.	.	.	.	.	1B-	de-	.	.	.	.
.	.	.	.	.	.	4A/	.	.	.	.	.
.	.	.	.	.	.	4G/	.	.	.	.	.
1r	.	1r	.	.	.	1F	-i,	.	.	1r	.
=8	=8	=8	=8	=8	=8	=8	=8	=8	=8	=8	=8
[0.C	qui	[0.c	de-	0.r	.	0.G	qui	0.r	.	0e	qui
.	.	.	.	.	.	.	.	.	.	1e	tol-
=9	=9	=9	=9	=9	=9	=9	=9	=9	=9	=9	=9
1C]	.	1c]	.	0.r	.	0A	tol-	0.r	.	1e	-lis
0D	tol-	0F	-i,	.	.	.	.	.	.	0f	pec-
.	.	.	.	.	.	1B-	-lis	.	.	.	.
=10	=10	=10	=10	=10	=10	=10	=10	=10	=10	=10	=10
1E	-lis	0.r	.	0.r	.	1.c	pec-	0.r	.	1e	.
1F	pec-	.	.	.	.	.	.	.	.	0d	-ca-
.	.	.	.	.	.	4Bni\	.	.	.	.	.
.	.	.	.	.	.	4A/	.	.	.	.	.
1G	-ca-	.	.	.	.	1Bni	.	.	.	.	.
=11	=11	=11	=11	=11	=11	=11	=11	=11	=11	=11	=11
0.A	-ta	0.c	qui	0.r	.	0c	-ca-	0.r	.	1c	-ta
.	.	.	.	.	.	.	.	.	.	1.cc	mun-
.	.	.	.	.	.	1F	-ta	.	.	.	.
.	.	.	.	.	.	.	.	.	.	4b-\	.
.	.	.	.	.	.	.	.	.	.	4a	.
=12	=12	=12	=12	=12	=12	=12	=12	=12	=12	=12	=12
2r	.	1F	tol-	0.r	.	1c	mun-	0.r	.	1a	-di,
2A\	mun-	.	.	.	.	.	.	.	.	.	.
2F\	.	0c	-lis	.	.	2A/	.	.	.	2r	.
2G\	.	.	.	.	.	2B-\	.	.	.	2g/	mun-
1A	-di,	.	.	.	.	1c	.	.	.	2e/	.
.	.	.	.	.	.	.	.	.	.	2f/	.
=13	=13	=13	=13	=13	=13	=13	=13	=13	=13	=13	=13
2r	.	1B-	pec-	0.r	.	1d	-di,	0.r	.	1g	-di,
2G\	mun-	.	.	.	.	.	.	.	.	.	.
2E\	.	2c\	-ca-	.	.	2r	.	.	.	2r	.
2F\	.	2A/	.	.	.	1d	mun-	.	.	2f/	mun-
1G	-di,	1B-	.	.	.	.	.	.	.	2d/	.
.	.	.	.	.	.	2B-\	.	.	.	2e/	.
=14	=14	=14	=14	=14	=14	=14	=14	=14	=14	=14	=14
2r	.	1A	-ta	0.r	.	1c	-di,	0.r	.	1f	-di,
2F\	mun-	.	.	.	.	.	.	.	.	.	.
2D\	.	2B-/	mun-	.	.	2r	.	.	.	2r	.
2E\	.	2G/	.	.	.	1c	mun-	.	.	2e/	mun-
1F	-di,	1A	.	.	.	.	.	.	.	2c/	.
.	.	.	.	.	.	2A/	.	.	.	2d/	.
=15	=15	=15	=15	=15	=15	=15	=15	=15	=15	=15	=15
2r	.	1G	-di,	0.r	.	1B-	-di,	0.r	.	1e	-di,
2E\	mun-	.	.	.	.	.	.	.	.	.	.
2C/	.	2A/	mun-	.	.	2r	.	.	.	2r	.
2D\	.	2F/	.	.	.	1B-	mun-	.	.	2d/	mun-
1E	-di,	1G	.	.	.	.	.	.	.	2B-/	.
.	.	.	.	.	.	2G/	.	.	.	2c/	.
=16	=16	=16	=16	=16	=16	=16	=16	=16	=16	=16	=16
2r	.	0F	-di,	0.r	.	1A	-di,	0.r	.	1d	-di,
2D\	mi-	.	.	.	.	.	.	.	.	.	.
2BB-/	.	.	.	.	.	2r	.	.	.	2r	.
2C/	.	.	.	.	.	1A	mun-	.	.	2c/	mun-
1D	-se-	1r	.	.	.	.	.	.	.	2A/	.
.	.	.	.	.	.	2F/	.	.	.	2B-/	.
=17	=17	=17	=17	=17	=17	=17	=17	=17	=17	=17	=17
0.C	-re-	1c	mi-	0.r	.	2G/	.	0.r	.	1c	-di,
.	.	.	.	.	.	1A	.	.	.	.	.
.	.	1c	-se-	.	.	.	.	.	.	1r	.
.	.	.	.	.	.	4G/	.	.	.	.	.
.	.	.	.	.	.	4F/	.	.	.	.	.
.	.	1c	-re-	.	.	1G	-di,	.	.	1e	mi-
=18	=18	=18	=18	=18	=18	=18	=18	=18	=18	=18	=18
0.D	-re	0.F	-re	0.r	.	2r	.	0.r	.	1.f	.
.	.	.	.	.	.	1d	mi-	.	.	.	.
.	.	.	.	.	.	2c\	-se-	.	.	4e/	-se-
.	.	.	.	.	.	.	.	.	.	4d/	.
.	.	.	.	.	.	2A/	-re-	.	.	1f	-re-
.	.	.	.	.	.	2B-\	.	.	.	.	.
=19	=19	=19	=19	=19	=19	=19	=19	=19	=19	=19	=19
2r	.	0.r	.	0.r	.	1c	-re	0.r	.	1e	-re
2C/	no-	.	.	.	.	.	.	.	.	.	.
2AA/	.	.	.	.	.	2r	.	.	.	2c/	no-
2BB-/	.	.	.	.	.	2B-\	no-	.	.	2d/	.
1C	-bis,	.	.	.	.	2G/	.	.	.	1e	.
.	.	.	.	.	.	2A/	.	.	.	.	.
=20	=20	=20	=20	=20	=20	=20	=20	=20	=20	=20	=20
2r	.	0.r	.	0.r	.	1B-	-bis,	0.r	.	1d	-bis,
2BB-/	no-	.	.	.	.	.	.	.	.	.	.
2GG/	.	.	.	.	.	2r	.	.	.	2B-/	no-
2AA/	.	.	.	.	.	2A/	no-	.	.	2c/	.
1BB-	-bis,	.	.	.	.	2F/	.	.	.	1d	.
.	.	.	.	.	.	2G/	.	.	.	.	.
=21	=21	=21	=21	=21	=21	=21	=21	=21	=21	=21	=21
2r	.	2r	.	0.r	.	1A	-bis,	0.r	.	0.c	-bis,
2AA/	no-	2c\	no-	.	.	.	.	.	.	.	.
2FF/	.	2A/	.	.	.	2r	.	.	.	.	.
2GG/	.	2B-\	.	.	.	2G/	no-	.	.	.	.
1AA	-bis,	1c	-bis,	.	.	2E/	.	.	.	.	.
.	.	.	.	.	.	2F/	.	.	.	.	.
=22	=22	=22	=22	=22	=22	=22	=22	=22	=22	=22	=22
2r	.	2r	.	0.r	.	1G	-bis,	0.r	.	1r	.
2GG/	no-	2B-\	no-	.	.	.	.	.	.	.	.
2EE-i/	.	2G/	.	.	.	2r	.	.	.	1r	.
2FF/	.	2A/	.	.	.	2F/	no-	.	.	.	.
1GG	.	1B-	-bis,	.	.	2D/	.	.	.	1g	no-
.	.	.	.	.	.	2E/	.	.	.	.	.
=23	=23	=23	=23	=23	=23	=23	=23	=23	=23	=23	=23
0.FF	-bis,	2r	.	0.r	.	2.F/	.	0.r	.	2a/	.
.	.	2A/	no-	.	.	.	.	.	.	1cc	.
.	.	.	.	.	.	4G/	.	.	.	.	.
.	.	2F/	.	.	.	2A/	.	.	.	.	.
.	.	2G/	.	.	.	2B-\	.	.	.	2b-\	.
.	.	1A	-bis,	.	.	[1c	.	.	.	2a/	.
.	.	.	.	.	.	.	.	.	.	4g/	.
.	.	.	.	.	.	.	.	.	.	4f/	.
=24	=24	=24	=24	=24	=24	=24	=24	=24	=24	=24	=24
0.C	no-	2r	.	0.r	.	2c\]	.	0.r	.	2e/	.
.	.	2G/	no-	.	.	4B-\	.	.	.	2.g/	.
.	.	.	.	.	.	4A/	.	.	.	.	.
.	.	2E/	.	.	.	2G/	.	.	.	.	.
.	.	.	.	.	.	.	.	.	.	4f/	.
.	.	2F/	.	.	.	2A/	.	.	.	1f	.
.	.	1G	.	.	.	2G/	-bis,	.	.	.	.
.	.	.	.	.	.	2c\	no-	.	.	2e/	.
=25	=25	=25	=25	=25	=25	=25	=25	=25	=25	=25	=25
[0.FFl	-bis.	[0.Fl	-bis.	0.r	.	2A/	.	0.r	.	[0.fl	-bis.
.	.	.	.	.	.	2B-\	.	.	.	.	.
.	.	.	.	.	.	1c	.	.	.	.	.
.	.	.	.	.	.	1d	.	.	.	.	.
=26	=26	=26	=26	=26	=26	=26	=26	=26	=26	=26	=26
0.FF]	.	0.F]	.	0.r	.	0.cl	-bis.	0.r	.	0.f]	.
!!LO:LB:i:g=z
=27||	=27||	=27||	=27||	=27||	=27||	=27||	=27||	=27||	=27||	=27||	=27||
*>B	*	*>B	*	*>B	*	*>B	*	*>B	*	*>B	*
*clefF4	*	*clefGv2	*	*clefGv2	*	*clefGv2	*	*clefG2	*	*clefG2	*
*k[b-]	*	*k[b-]	*	*k[b-]	*	*k[b-]	*	*k[b-]	*	*k[b-]	*
*M2/1	*	*M2/1	*	*M2/1	*	*M2/1	*	*M2/1	*	*M2/1	*
*met(C|)	*	*met(C|)	*	*met(C|)	*	*met(C|)	*	*met(C|)	*	*met(C|)	*
!!section: Agnus dei II
!!!OMD: Agnus dei II
[0F	A-	0r	.	0r	.	0r	.	0r	.	1.c	A-
.	.	.	.	.	.	.	.	.	.	4B-/	.
.	.	.	.	.	.	.	.	.	.	4A/	.
=28	=28	=28	=28	=28	=28	=28	=28	=28	=28	=28	=28
0F]	.	0r	.	0r	.	0r	.	0r	.	1d	.
.	.	.	.	.	.	.	.	.	.	1c	-gnus,
=29	=29	=29	=29	=29	=29	=29	=29	=29	=29	=29	=29
1E	-gnus,	0r	.	0r	.	0r	.	0r	.	2r	.
.	.	.	.	.	.	.	.	.	.	1c	a-
[1F	a-	.	.	.	.	.	.	.	.	.	.
.	.	.	.	.	.	.	.	.	.	4B-/	.
.	.	.	.	.	.	.	.	.	.	4A/	.
=30	=30	=30	=30	=30	=30	=30	=30	=30	=30	=30	=30
0F]	.	0r	.	0r	.	0r	.	0r	.	1d	.
.	.	.	.	.	.	.	.	.	.	1c	-gnus,
=31	=31	=31	=31	=31	=31	=31	=31	=31	=31	=31	=31
1E	-gnus	0r	.	0r	.	0r	.	0r	.	2r	.
.	.	.	.	.	.	.	.	.	.	2.c/	de-
[1F	de-	.	.	.	.	.	.	.	.	.	.
.	.	.	.	.	.	.	.	.	.	4A/	.
.	.	.	.	.	.	.	.	.	.	[2d/	.
=32	=32	=32	=32	=32	=32	=32	=32	=32	=32	=32	=32
1F]	.	0r	.	0r	.	0r	.	0r	.	4d/]	.
.	.	.	.	.	.	.	.	.	.	4c/	.
.	.	.	.	.	.	.	.	.	.	4B-/	.
.	.	.	.	.	.	.	.	.	.	4A/	.
1E	.	.	.	.	.	.	.	.	.	1G	.
=33	=33	=33	=33	=33	=33	=33	=33	=33	=33	=33	=33
[0F	-i	0r	.	0r	.	[0c	A-	0r	.	0F	-i,
=34	=34	=34	=34	=34	=34	=34	=34	=34	=34	=34	=34
0F]	.	0r	.	0r	.	0c]	.	0r	.	1r	.
.	.	.	.	.	.	.	.	.	.	1c	qui
=35	=35	=35	=35	=35	=35	=35	=35	=35	=35	=35	=35
0r	.	0r	.	0r	.	1B-	-gnus,	0r	.	1d	.
.	.	.	.	.	.	[1c	a-	.	.	2.e/	tol-
.	.	.	.	.	.	.	.	.	.	4f/	.
=36	=36	=36	=36	=36	=36	=36	=36	=36	=36	=36	=36
0r	.	0r	.	0r	.	0c]	.	0r	.	2g/	.
.	.	.	.	.	.	.	.	.	.	1a	.
.	.	.	.	.	.	.	.	.	.	[2g/	-lis,
=37	=37	=37	=37	=37	=37	=37	=37	=37	=37	=37	=37
0r	.	0r	.	0r	.	1B-	-gnus	0r	.	2g/]	.
.	.	.	.	.	.	.	.	.	.	2b-\	qui
.	.	.	.	.	.	[1c	de-	.	.	2a/	tol-
.	.	.	.	.	.	.	.	.	.	[2g/	.
=38	=38	=38	=38	=38	=38	=38	=38	=38	=38	=38	=38
1r	.	0r	.	0r	.	1c]	.	0r	.	2g/]	.
.	.	.	.	.	.	.	.	.	.	4f/	.
.	.	.	.	.	.	.	.	.	.	4e/	.
2.G\	qui	.	.	.	.	1B-	.	.	.	2d/	.
.	.	.	.	.	.	.	.	.	.	[2g/	.
4F\	.	.	.	.	.	.	.	.	.	.	.
=39	=39	=39	=39	=39	=39	=39	=39	=39	=39	=39	=39
4E\	.	0r	.	0r	.	0c	-i,	0r	.	4g/]	.
4D\	.	.	.	.	.	.	.	.	.	4f/	.
1F	tol-	.	.	.	.	.	.	.	.	1a	.
4E\	.	.	.	.	.	.	.	.	.	4g/	.
4D\	.	.	.	.	.	.	.	.	.	4f/	.
=40	=40	=40	=40	=40	=40	=40	=40	=40	=40	=40	=40
1C	-lis	0r	.	0r	.	1r	.	0r	.	0e	-lis
1C	pec-	.	.	.	.	2.c\	qui	.	.	.	.
.	.	.	.	.	.	4B-\	.	.	.	.	.
=41	=41	=41	=41	=41	=41	=41	=41	=41	=41	=41	=41
1D	-ca-	0r	.	0r	.	4A/	.	0r	.	0r	.
.	.	.	.	.	.	4G/	.	.	.	.	.
.	.	.	.	.	.	1B-	tol-	.	.	.	.
1GG	.	.	.	.	.	.	.	.	.	.	.
.	.	.	.	.	.	4A/	.	.	.	.	.
.	.	.	.	.	.	4G/	.	.	.	.	.
=42	=42	=42	=42	=42	=42	=42	=42	=42	=42	=42	=42
2.D\	.	0r	.	0r	.	1F	-lis	0r	.	0r	.
4C/	.	.	.	.	.	.	.	.	.	.	.
2AA/	.	.	.	.	.	1F	pec-	.	.	.	.
[2BB-/	.	.	.	.	.	.	.	.	.	.	.
=43	=43	=43	=43	=43	=43	=43	=43	=43	=43	=43	=43
2BB-/]	.	0r	.	0r	.	1G	-ca-	0r	.	0r	.
1C	.	.	.	.	.	.	.	.	.	.	.
.	.	.	.	.	.	1C	-ta,	.	.	.	.
[2FF/	-ta,	.	.	.	.	.	.	.	.	.	.
=44	=44	=44	=44	=44	=44	=44	=44	=44	=44	=44	=44
2FF/]	.	0r	.	0r	.	2.D/	pec-	0r	.	0r	.
2.BB-/	pec-	.	.	.	.	.	.	.	.	.	.
.	.	.	.	.	.	4E/	.	.	.	.	.
.	.	.	.	.	.	2.F/	-ca-	.	.	.	.
4AA/	.	.	.	.	.	.	.	.	.	.	.
4BB-/	.	.	.	.	.	.	.	.	.	.	.
4C/	.	.	.	.	.	4E/	.	.	.	.	.
=45	=45	=45	=45	=45	=45	=45	=45	=45	=45	=45	=45
2.D\	-ca-	0r	.	0r	.	4F/	.	0r	.	0r	.
.	.	.	.	.	.	4G/	.	.	.	.	.
.	.	.	.	.	.	2.A/	.	.	.	.	.
4C/	.	.	.	.	.	.	.	.	.	.	.
4D\	.	.	.	.	.	.	.	.	.	.	.
4E\	.	.	.	.	.	4G/	.	.	.	.	.
[2F\	.	.	.	.	.	4A/	.	.	.	.	.
.	.	.	.	.	.	4B-\	.	.	.	.	.
=46	=46	=46	=46	=46	=46	=46	=46	=46	=46	=46	=46
4F\]	.	0r	.	0r	.	1c	-ta	0r	.	2.A/	pec-
4E\	.	.	.	.	.	.	.	.	.	.	.
4F\	.	.	.	.	.	.	.	.	.	.	.
4G\	.	.	.	.	.	.	.	.	.	4B-/	.
2A\	-ta	.	.	.	.	1r	.	.	.	2c/	.
[2B-\	mun-	.	.	.	.	.	.	.	.	[2d/	-ca-
=47	=47	=47	=47	=47	=47	=47	=47	=47	=47	=47	=47
2B-\]	.	0r	.	0r	.	0r	.	0r	.	2d/]	.
1A	.	.	.	.	.	.	.	.	.	2e/	-ta
.	.	.	.	.	.	.	.	.	.	2f/	mun-
2G\	.	.	.	.	.	.	.	.	.	2g/	.
=48	=48	=48	=48	=48	=48	=48	=48	=48	=48	=48	=48
1A	-di	0r	.	0r	.	2r	.	0r	.	0c	-di,
.	.	.	.	.	.	2.c\	pec-	.	.	.	.
2r	.	.	.	.	.	.	.	.	.	.	.
.	.	.	.	.	.	4B-\	.	.	.	.	.
2AA/	mun-	.	.	.	.	4A/	.	.	.	.	.
.	.	.	.	.	.	4G/	.	.	.	.	.
=49	=49	=49	=49	=49	=49	=49	=49	=49	=49	=49	=49
2BB-/	.	0r	.	0r	.	2F/	.	0r	.	1r	.
2GG/	.	.	.	.	.	2G/	.	.	.	.	.
1AA	-di,	.	.	.	.	1E	-ca-	.	.	1c	mun-
=50	=50	=50	=50	=50	=50	=50	=50	=50	=50	=50	=50
0r	.	0r	.	0r	.	2D/	-ta	0r	.	0f	.
.	.	.	.	.	.	2.d\	mun-	.	.	.	.
.	.	.	.	.	.	4c\	.	.	.	.	.
.	.	.	.	.	.	2A/	.	.	.	.	.
=51	=51	=51	=51	=51	=51	=51	=51	=51	=51	=51	=51
1r	.	0r	.	0r	.	2B-\	.	0r	.	1g	.
.	.	.	.	.	.	2c\	.	.	.	.	.
2r	.	.	.	.	.	1F	-di,	.	.	[1a	.
[2A\	mun-	.	.	.	.	.	.	.	.	.	.
=52	=52	=52	=52	=52	=52	=52	=52	=52	=52	=52	=52
4A\]	.	0r	.	0r	.	0r	.	0r	.	2a/]	.
4G\	.	.	.	.	.	.	.	.	.	.	.
2E\	.	.	.	.	.	.	.	.	.	2g/	.
2F\	.	.	.	.	.	.	.	.	.	2a/	.
2G\	.	.	.	.	.	.	.	.	.	[2g/	.
=53	=53	=53	=53	=53	=53	=53	=53	=53	=53	=53	=53
1C	-di,	0r	.	0r	.	2r	.	0r	.	4g/]	.
.	.	.	.	.	.	.	.	.	.	4f/	.
.	.	.	.	.	.	2.c\	mun-	.	.	4e/	.
.	.	.	.	.	.	.	.	.	.	4d/	.
1r	.	.	.	.	.	.	.	.	.	1e	.
.	.	.	.	.	.	4B-\	.	.	.	.	.
.	.	.	.	.	.	2G/	.	.	.	.	.
=54	=54	=54	=54	=54	=54	=54	=54	=54	=54	=54	=54
1r	.	0r	.	0r	.	2A/	.	0r	.	1f	.
.	.	.	.	.	.	2B-\	.	.	.	.	.
2r	.	.	.	.	.	1E-	-di,	.	.	[1g	-di,
[2E-i\	mun-	.	.	.	.	.	.	.	.	.	.
=55	=55	=55	=55	=55	=55	=55	=55	=55	=55	=55	=55
4E-\]	.	0r	.	0r	.	0r	.	0r	.	1g]	.
4D\	.	.	.	.	.	.	.	.	.	.	.
2BB-/	.	.	.	.	.	.	.	.	.	.	.
2C/	.	.	.	.	.	.	.	.	.	1a	mun-
2D\	.	.	.	.	.	.	.	.	.	.	.
=56	=56	=56	=56	=56	=56	=56	=56	=56	=56	=56	=56
1GG	-di,	0r	.	0r	.	2r	.	0r	.	1.b-	.
.	.	.	.	.	.	2.B-\	mun-	.	.	.	.
1r	.	.	.	.	.	.	.	.	.	.	.
.	.	.	.	.	.	4A/	.	.	.	.	.
.	.	.	.	.	.	2F/	.	.	.	2a/	.
=57	=57	=57	=57	=57	=57	=57	=57	=57	=57	=57	=57
1r	.	0r	.	0r	.	2G/	.	0r	.	2b-\	.
.	.	.	.	.	.	2A/	.	.	.	2.a/	.
2r	.	.	.	.	.	1D	-di,	.	.	.	.
.	.	.	.	.	.	.	.	.	.	4g/	.
[2D\	mun-	.	.	.	.	.	.	.	.	4f/	.
.	.	.	.	.	.	.	.	.	.	4e/	.
=58	=58	=58	=58	=58	=58	=58	=58	=58	=58	=58	=58
4D\]	.	0r	.	0r	.	0r	.	0r	.	2d/	.
4C/	.	.	.	.	.	.	.	.	.	.	.
2AA/	.	.	.	.	.	.	.	.	.	2c/	.
2BB-/	.	.	.	.	.	.	.	.	.	2d/	.
2C/	.	.	.	.	.	.	.	.	.	[2c/	.
=59	=59	=59	=59	=59	=59	=59	=59	=59	=59	=59	=59
1FF	-di,	0r	.	0r	.	2.F/	mi-	0r	.	4c/]	.
.	.	.	.	.	.	.	.	.	.	4B-/	.
.	.	.	.	.	.	.	.	.	.	4A/	.
.	.	.	.	.	.	4G/	.	.	.	4G/	.
1r	.	.	.	.	.	4A/	.	.	.	1F	-di,
.	.	.	.	.	.	4B-\	.	.	.	.	.
.	.	.	.	.	.	[2A/	.	.	.	.	.
=60	=60	=60	=60	=60	=60	=60	=60	=60	=60	=60	=60
1F	mi-	0r	.	0r	.	2A/]	.	0r	.	0r	.
.	.	.	.	.	.	4G/	-se-	.	.	.	.
.	.	.	.	.	.	4F/	.	.	.	.	.
2E\	-se-	.	.	.	.	2G/	-re-	.	.	.	.
[2F\	-re-	.	.	.	.	2F/	.	.	.	.	.
=61	=61	=61	=61	=61	=61	=61	=61	=61	=61	=61	=61
2F\]	.	0r	.	0r	.	2A/	.	0r	.	2.c/	mi-
4E\	.	.	.	.	.	2B-\	.	.	.	.	.
4D\	.	.	.	.	.	.	.	.	.	4d/	.
1C	-re	.	.	.	.	1c	-re	.	.	4e/	.
.	.	.	.	.	.	.	.	.	.	4f/	.
.	.	.	.	.	.	.	.	.	.	[2e/	.
=62	=62	=62	=62	=62	=62	=62	=62	=62	=62	=62	=62
0r	.	0r	.	0r	.	2r	.	0r	.	2e/]	.
.	.	.	.	.	.	2c\	no-	.	.	4d/	-se-
.	.	.	.	.	.	.	.	.	.	4c/	.
.	.	.	.	.	.	2B-\	.	.	.	2d/	-re-
.	.	.	.	.	.	[2c\	.	.	.	2c/	.
=63	=63	=63	=63	=63	=63	=63	=63	=63	=63	=63	=63
1r	.	0r	.	0r	.	2c\]	.	0r	.	2e/	.
.	.	.	.	.	.	4B-\	.	.	.	2f/	.
.	.	.	.	.	.	4A/	.	.	.	.	.
2r	.	.	.	.	.	[1G	-bis,	.	.	1g	-re
[2E-i\	no-	.	.	.	.	.	.	.	.	.	.
=64	=64	=64	=64	=64	=64	=64	=64	=64	=64	=64	=64
2E-\]	.	0r	.	0r	.	1G]	.	0r	.	2r	.
4D\	.	.	.	.	.	.	.	.	.	2g/	no-
4C/	.	.	.	.	.	.	.	.	.	.	.
2D\	.	.	.	.	.	1r	.	.	.	2f/	.
2C/	.	.	.	.	.	.	.	.	.	[2g/	.
=65	=65	=65	=65	=65	=65	=65	=65	=65	=65	=65	=65
0G	-bis,	0r	.	0r	.	1r	.	0r	.	2g/]	.
.	.	.	.	.	.	.	.	.	.	4f/	.
.	.	.	.	.	.	.	.	.	.	4e/	.
.	.	.	.	.	.	2r	.	.	.	1d	-bis,
.	.	.	.	.	.	2B-\	no-	.	.	.	.
=66	=66	=66	=66	=66	=66	=66	=66	=66	=66	=66	=66
1D	no-	0r	.	0r	.	2A/	.	0r	.	0r	.
.	.	.	.	.	.	1B-	.	.	.	.	.
1E-i	.	.	.	.	.	.	.	.	.	.	.
.	.	.	.	.	.	4A/	.	.	.	.	.
.	.	.	.	.	.	4G/	.	.	.	.	.
=67	=67	=67	=67	=67	=67	=67	=67	=67	=67	=67	=67
1D	.	0r	.	0r	.	1F	-bis,	0r	.	2r	.
.	.	.	.	.	.	.	.	.	.	2a/	no-
2E-i\	.	.	.	.	.	1r	.	.	.	2g/	.
2C/	.	.	.	.	.	.	.	.	.	[2a/	.
=68	=68	=68	=68	=68	=68	=68	=68	=68	=68	=68	=68
1D	.	0r	.	0r	.	1r	.	0r	.	2a/]	.
.	.	.	.	.	.	.	.	.	.	4g/	.
.	.	.	.	.	.	.	.	.	.	4f/	.
1C	-bis,	.	.	.	.	2r	.	.	.	1e	-bis,
.	.	.	.	.	.	2c\	no-	.	.	.	.
=69	=69	=69	=69	=69	=69	=69	=69	=69	=69	=69	=69
2D\	no-	0r	.	0r	.	2B-\	.	0r	.	1r	.
2C/	.	.	.	.	.	1c	.	.	.	.	.
2E\	.	.	.	.	.	.	.	.	.	2r	.
2F\	.	.	.	.	.	4B-\	.	.	.	2cc\	no-
.	.	.	.	.	.	4A/	.	.	.	.	.
=70	=70	=70	=70	=70	=70	=70	=70	=70	=70	=70	=70
2G\	.	0r	.	0r	.	2G/	.	0r	.	2b-\	.
1A	.	.	.	.	.	1F	-bis,	.	.	1cc	.
2F\	.	.	.	.	.	2c\	no-	.	.	4b-\	.
.	.	.	.	.	.	.	.	.	.	4a/	.
=71	=71	=71	=71	=71	=71	=71	=71	=71	=71	=71	=71
2G\	.	0r	.	0r	.	2B-\	.	0r	.	1g	-bis,
2E\	.	.	.	.	.	1c	.	.	.	.	.
1F	-bis,	.	.	.	.	.	.	.	.	1r	.
.	.	.	.	.	.	4B-\	.	.	.	.	.
.	.	.	.	.	.	4A/	.	.	.	.	.
=72	=72	=72	=72	=72	=72	=72	=72	=72	=72	=72	=72
2E\	no-	0r	.	0r	.	2G/	.	0r	.	2r	.
2F\	.	.	.	.	.	2F/	.	.	.	2a/	no-
2E\	.	.	.	.	.	2G/	.	.	.	2g/	.
[2F\	.	.	.	.	.	2F/	.	.	.	[2a/	.
=73	=73	=73	=73	=73	=73	=73	=73	=73	=73	=73	=73
2F\]	.	0r	.	0r	.	2A/	.	0r	.	4a/]	.
.	.	.	.	.	.	.	.	.	.	4g/	.
2D\	.	.	.	.	.	2B-\	.	.	.	1f	.
1C	.	.	.	.	.	1c	.	.	.	.	.
.	.	.	.	.	.	.	.	.	.	2e/	.
=74	=74	=74	=74	=74	=74	=74	=74	=74	=74	=74	=74
0BB-	.	0r	.	0r	.	0d	.	0r	.	[0fl	-bis.
=75	=75	=75	=75	=75	=75	=75	=75	=75	=75	=75	=75
0Fl	-bis.	0r	.	0r	.	0c;l	-bis.	0r	.	0f]	.
!!LO:LB:i:g=z
=76||	=76||	=76||	=76||	=76||	=76||	=76||	=76||	=76||	=76||	=76||	=76||
*>C	*	*>C	*	*>C	*	*>C	*	*>C	*	*>C	*
!!section: Agnus dei III
!!!OMD: Agnus dei III
*clefF4	*	*clefF4	*	*clefGv2	*	*clefGv2	*	*clefG2	*	*clefG2	*
*k[b-]	*	*k[b-]	*	*k[b-]	*	*k[b-]	*	*k[b-]	*	*k[b-]	*
*rscale:1/2	*	*rscale:1/2	*	*	*	*	*	*	*	*	*
*M3/0	*	*M3/0	*	*M2/1	*	*M2/1	*	*M2/1	*	*M2/1	*
*met(O)	*	*met(O)	*	*met(O2)	*	*met(O2)	*	*met(O2)	*	*met(O2)	*
!	!	!	!	!	!	!	!	!	!	!LO:TX:Z=6:t=Fuga ad minimam (unison canon at the minim)	!
!	!	!	!	!	!	!LO:TX:Z=6:t=Fuga ad minimam (unison canon at the minim)	!	!	!	!	!
!	!	!LO:TX:Z=6:t=C.f. sung forwards and backwards simultaneously	!	!	!	!	!	!	!	!	!
[0FF	A-	[0F	A-	2r	.	1c	A-	0r	.	0r	.
.	.	.	.	1c	A-	.	.	.	.	.	.
.	.	.	.	.	.	2A/	-gnus	.	.	.	.
.	.	.	.	2A/	-gnus	[2c\	de-	.	.	.	.
=77.	=77.	=77.	=77.	=77.	=77.	=77.	=77.	=77.	=77.	=77.	=77.
0FF_	.	0F]	.	2.c\	de-	4c\]	.	0r	.	0r	.
.	.	.	.	.	.	4B-\	.	.	.	.	.
.	.	.	.	.	.	4A/	.	.	.	.	.
.	.	.	.	4B-\	.	4G/	.	.	.	.	.
.	.	.	.	4A/	.	2F/	-i,	.	.	.	.
.	.	.	.	4G/	.	.	.	.	.	.	.
.	.	.	.	2F/	-i,	2c\	a-	.	.	.	.
=78.	=78.	=78.	=78.	=78.	=78.	=78.	=78.	=78.	=78.	=78.	=78.
0FF]	.	0F	-gnus	2c\	a-	2.A/	-gnus	0r	.	0r	.
.	.	.	.	2.A/	-gnus	.	.	.	.	.	.
.	.	.	.	.	.	4B-\	.	.	.	.	.
.	.	.	.	.	.	2.c\	de-	.	.	.	.
.	.	.	.	4B-\	.	.	.	.	.	.	.
.	.	.	.	[2c\	de-	.	.	.	.	.	.
.	.	.	.	.	.	4B-\	.	.	.	.	.
=79	=79	=79	=79	=79	=79	=79	=79	=79	=79	=79	=79
0C	.	[0E	de-	4c\]	.	0G	-i,	2r	.	1g	A-
.	.	.	.	4B-\	.	.	.	.	.	.	.
.	.	.	.	[1.G	-i,	.	.	1g	A-	.	.
.	.	.	.	.	.	.	.	.	.	2e/	-gnus
.	.	.	.	.	.	.	.	2e/	-gnus	[2g/	de-
=80.	=80.	=80.	=80.	=80.	=80.	=80.	=80.	=80.	=80.	=80.	=80.
[0C	-gnus	0E]	.	2G/]	.	0r	.	2.g/	de-	4g/]	.
.	.	.	.	.	.	.	.	.	.	4f/	.
.	.	.	.	2r	.	.	.	.	.	4e/	.
.	.	.	.	.	.	.	.	4f/	.	4d/	.
.	.	.	.	1r	.	.	.	4e/	.	2c/	-i,
.	.	.	.	.	.	.	.	4d/	.	.	.
.	.	.	.	.	.	.	.	2c/	-i,	2e/	a-
=81.	=81.	=81.	=81.	=81.	=81.	=81.	=81.	=81.	=81.	=81.	=81.
0C]	.	0E	-i,	0r	.	0r	.	2e/	a-	2c/	-gnus
.	.	.	.	.	.	.	.	2c/	-gnus	2.e/	de-
.	.	.	.	.	.	.	.	2.e/	de-	.	.
.	.	.	.	.	.	.	.	.	.	4d/	.
.	.	.	.	.	.	.	.	.	.	4c/	.
.	.	.	.	.	.	.	.	4d/	.	4B-/	.
=82	=82	=82	=82	=82	=82	=82	=82	=82	=82	=82	=82
0r	.	[0F	de-	2r	.	1c	a-	4c/	.	[0A	-i,
.	.	.	.	.	.	.	.	4B-/	.	.	.
.	.	.	.	1c	a-	.	.	[1.A	-i,	.	.
.	.	.	.	.	.	2A/	-gnus	.	.	.	.
.	.	.	.	2A/	-gnus	[2c\	de-	.	.	.	.
=83.	=83.	=83.	=83.	=83.	=83.	=83.	=83.	=83.	=83.	=83.	=83.
[0FF	de-	1F]	.	2.c\	de-	4c\]	.	0A_	.	0A_	.
.	.	.	.	.	.	4B-\	.	.	.	.	.
.	.	.	.	.	.	4A/	.	.	.	.	.
.	.	.	.	4B-\	.	4G/	.	.	.	.	.
.	.	[1C	-i,	4A/	.	2F/	-i,	.	.	.	.
.	.	.	.	4G/	.	.	.	.	.	.	.
.	.	.	.	2F/	-i,	2A/	a-	.	.	.	.
=84.	=84.	=84.	=84.	=84.	=84.	=84.	=84.	=84.	=84.	=84.	=84.
0FF]	.	0C]	.	2A/	a-	2F/	-gnus	0A_	.	0A]	.
.	.	.	.	2F/	-gnus	2.A/	de-	.	.	.	.
.	.	.	.	2.A/	de-	.	.	.	.	.	.
.	.	.	.	.	.	4G/	.	.	.	.	.
.	.	.	.	.	.	4F/	.	.	.	.	.
.	.	.	.	4G/	.	4E/	.	.	.	.	.
=85	=85	=85	=85	=85	=85	=85	=85	=85	=85	=85	=85
[0FF	-i,	0r	.	4F/	.	4D/	.	2A/]	.	0r	.
.	.	.	.	4E/	.	4C/	.	.	.	.	.
.	.	.	.	4D/	.	2F/	-i,	2r	.	.	.
.	.	.	.	4C/	.	.	.	.	.	.	.
.	.	.	.	2F/	-i,	2r	.	1r	.	.	.
.	.	.	.	2r	.	[2F/	a-	.	.	.	.
=86.	=86.	=86.	=86.	=86.	=86.	=86.	=86.	=86.	=86.	=86.	=86.
1FF]	.	0r	.	2.F/	a-	4F/]	.	0r	.	0r	.
.	.	.	.	.	.	4E/	.	.	.	.	.
.	.	.	.	.	.	4D/	.	.	.	.	.
.	.	.	.	4E/	.	4C/	.	.	.	.	.
[1GG	de-	.	.	4D/	.	2BB-/	-gnus	.	.	.	.
.	.	.	.	4C/	.	.	.	.	.	.	.
.	.	.	.	2BB-/	-gnus	[2B-\	de-	.	.	.	.
=87.	=87.	=87.	=87.	=87.	=87.	=87.	=87.	=87.	=87.	=87.	=87.
0GG]	.	0r	.	2.B-\	de-	4B-\]	.	0r	.	0r	.
.	.	.	.	.	.	4A/	.	.	.	.	.
.	.	.	.	.	.	2.G/	.	.	.	.	.
.	.	.	.	4A/	.	.	.	.	.	.	.
.	.	.	.	2.G/	.	.	.	.	.	.	.
.	.	.	.	.	.	4F/	.	.	.	.	.
.	.	.	.	.	.	4E/	.	.	.	.	.
.	.	.	.	4F/	.	4D/	.	.	.	.	.
=88	=88	=88	=88	=88	=88	=88	=88	=88	=88	=88	=88
[0AA	.	0r	.	4E/	.	2C/	-i,	0r	.	0r	.
.	.	.	.	4D/	.	.	.	.	.	.	.
.	.	.	.	2C/	-i,	2.c\	a-	.	.	.	.
.	.	.	.	2.c\	a-	.	.	.	.	.	.
.	.	.	.	.	.	4B-\	.	.	.	.	.
.	.	.	.	.	.	[2A/	.	.	.	.	.
.	.	.	.	4B-\	.	.	.	.	.	.	.
=89.	=89.	=89.	=89.	=89.	=89.	=89.	=89.	=89.	=89.	=89.	=89.
1AA]	.	0r	.	2.A/	.	4A/]	.	0r	.	0r	.
.	.	.	.	.	.	4G/	.	.	.	.	.
.	.	.	.	.	.	4F/	.	.	.	.	.
.	.	.	.	4G/	.	4E/	.	.	.	.	.
[1BB-	.	.	.	4F/	.	2D/	-gnus	.	.	.	.
.	.	.	.	4E/	.	.	.	.	.	.	.
.	.	.	.	2D/	-gnus	[2d\	de-	.	.	.	.
=90.	=90.	=90.	=90.	=90.	=90.	=90.	=90.	=90.	=90.	=90.	=90.
0BB-]	.	0r	.	2.d\	de-	4d\]	.	0r	.	0r	.
.	.	.	.	.	.	4c\	.	.	.	.	.
.	.	.	.	.	.	2.B-\	.	.	.	.	.
.	.	.	.	4c\	.	.	.	.	.	.	.
.	.	.	.	2.B-\	.	.	.	.	.	.	.
.	.	.	.	.	.	4A/	.	.	.	.	.
.	.	.	.	.	.	4G/	.	.	.	.	.
.	.	.	.	4A/	.	4F/	.	.	.	.	.
=91	=91	=91	=91	=91	=91	=91	=91	=91	=91	=91	=91
0C	.	0r	.	4G/	.	1E	-i,	2r	.	2.c/	qui
.	.	.	.	4F/	.	.	.	.	.	.	.
.	.	.	.	1E	-i,	.	.	2.c/	qui	.	.
.	.	.	.	.	.	.	.	.	.	4d/	.
.	.	.	.	.	.	1r	.	.	.	2e/	.
.	.	.	.	.	.	.	.	4d/	.	.	.
.	.	.	.	2r	.	.	.	2e/	.	2c/	.
=92.	=92.	=92.	=92.	=92.	=92.	=92.	=92.	=92.	=92.	=92.	=92.
[0C	-i,	0r	.	2r	.	2.C/	qui	2c/	.	2.e/	tol-
.	.	.	.	2.C/	qui	.	.	2.e/	tol-	.	.
.	.	.	.	.	.	4D/	.	.	.	4f/	.
.	.	.	.	.	.	2E/	.	.	.	2g/	.
.	.	.	.	4D/	.	.	.	4f/	.	.	.
.	.	.	.	2E/	.	2C/	.	2g/	.	2e/	.
=93.	=93.	=93.	=93.	=93.	=93.	=93.	=93.	=93.	=93.	=93.	=93.
0C]	.	0r	.	2C/	.	2c\	tol-	2e/	.	4g/	.
.	.	.	.	.	.	.	.	.	.	4f/	.
.	.	.	.	2c\	tol-	2A/	.	4g/	.	4e/	.
.	.	.	.	.	.	.	.	4f/	.	4d/	.
.	.	.	.	2A/	.	4c\	.	4e/	.	2e/	-lis,
.	.	.	.	.	.	4B-\	.	4d/	.	.	.
.	.	.	.	4c\	.	4A/	.	2e/	-lis,	2r	.
.	.	.	.	4B-\	.	4G/	.	.	.	.	.
=94	=94	=94	=94	=94	=94	=94	=94	=94	=94	=94	=94
0r	.	[0F	qui	4A/	.	1A	-lis,	2r	.	2.f/	qui
.	.	.	.	4G/	.	.	.	.	.	.	.
.	.	.	.	1A	-lis,	.	.	2.f/	qui	.	.
.	.	.	.	.	.	.	.	.	.	4g/	.
.	.	.	.	.	.	1r	.	.	.	2a/	.
.	.	.	.	.	.	.	.	4g/	.	.	.
.	.	.	.	2r	.	.	.	2a/	.	2f/	.
=95.	=95.	=95.	=95.	=95.	=95.	=95.	=95.	=95.	=95.	=95.	=95.
[0FF	qui	0F]	.	2r	.	2.F/	qui	2f/	.	2.a/	tol-
.	.	.	.	2.F/	qui	.	.	2.a/	tol-	.	.
.	.	.	.	.	.	4G/	.	.	.	4b-\	.
.	.	.	.	.	.	2A/	.	.	.	2cc\	.
.	.	.	.	4G/	.	.	.	4b-\	.	.	.
.	.	.	.	2A/	.	2F/	.	2cc\	.	2a/	.
=96.	=96.	=96.	=96.	=96.	=96.	=96.	=96.	=96.	=96.	=96.	=96.
0FF]	.	0F	tol-	2F/	.	2.A/	tol-	2a/	.	4cc\	.
.	.	.	.	.	.	.	.	.	.	4b-\	.
.	.	.	.	2.A/	tol-	.	.	4cc\	.	4a/	.
.	.	.	.	.	.	4B-\	.	4b-\	.	4g/	.
.	.	.	.	.	.	2.c\	.	4a/	.	2a/	-lis,
.	.	.	.	4B-\	.	.	.	4g/	.	.	.
.	.	.	.	[2c\	.	.	.	2a/	-lis,	2r	.
.	.	.	.	.	.	4B-\	.	.	.	.	.
=97	=97	=97	=97	=97	=97	=97	=97	=97	=97	=97	=97
[0C	tol-	[0E	-lis,	4c\]	.	1G	-lis,	2r	.	2.g/	qui
.	.	.	.	4B-\	.	.	.	.	.	.	.
.	.	.	.	1G	-lis,	.	.	2.g/	qui	.	.
.	.	.	.	.	.	.	.	.	.	4f/	.
.	.	.	.	.	.	1r	.	.	.	4e/	.
.	.	.	.	.	.	.	.	4f/	.	4d/	.
.	.	.	.	2r	.	.	.	4e/	.	2e/	.
.	.	.	.	.	.	.	.	4d/	.	.	.
=98.	=98.	=98.	=98.	=98.	=98.	=98.	=98.	=98.	=98.	=98.	=98.
1C]	.	1E]	.	1r	.	1r	.	2e/	.	2.c/	tol-
.	.	.	.	.	.	.	.	2.c/	tol-	.	.
.	.	.	.	.	.	.	.	.	.	4B-/	.
[1FF	-lis	[1F	pec-	2r	.	2F/	pec-	.	.	4A/	.
.	.	.	.	.	.	.	.	4B-/	.	4G/	.
.	.	.	.	2F/	pec-	[2c\	-ca-	4A/	.	2A/	-lis,
.	.	.	.	.	.	.	.	4G/	.	.	.
=99.	=99.	=99.	=99.	=99.	=99.	=99.	=99.	=99.	=99.	=99.	=99.
0FF]	.	0F]	.	2.c\	-ca-	4c\]	.	2A/	-lis,	0r	.
.	.	.	.	.	.	4B-\	.	.	.	.	.
.	.	.	.	.	.	4A/	.	2r	.	.	.
.	.	.	.	4B-\	.	4G/	.	.	.	.	.
.	.	.	.	4A/	.	2A/	-ta,	1r	.	.	.
.	.	.	.	4G/	.	.	.	.	.	.	.
.	.	.	.	2A/	-ta,	2r	.	.	.	.	.
=100	=100	=100	=100	=100	=100	=100	=100	=100	=100	=100	=100
[0GG	pec-	[0D	-ca-	0r	.	0r	.	2r	.	2G/	pec-
.	.	.	.	.	.	.	.	2G/	pec-	2.d/	-ca-
.	.	.	.	.	.	.	.	2.d/	-ca-	.	.
.	.	.	.	.	.	.	.	.	.	4c/	.
.	.	.	.	.	.	.	.	.	.	4B-/	.
.	.	.	.	.	.	.	.	4c/	.	4A/	.
=101.	=101.	=101.	=101.	=101.	=101.	=101.	=101.	=101.	=101.	=101.	=101.
1GG]	.	1D]	.	1r	.	1r	.	4B-/	.	2B-/	-ta
.	.	.	.	.	.	.	.	4A/	.	.	.
.	.	.	.	.	.	.	.	2B-/	-ta	2r	.
[1AA	.	[1C	.	2r	.	2.c\	pec-	1r	.	1r	.
.	.	.	.	[2c\	pec-	.	.	.	.	.	.
.	.	.	.	.	.	4B-\	.	.	.	.	.
=102.	=102.	=102.	=102.	=102.	=102.	=102.	=102.	=102.	=102.	=102.	=102.
0AA]	.	0C]	.	4c\]	.	2c\	.	0r	.	0r	.
.	.	.	.	4B-\	.	.	.	.	.	.	.
.	.	.	.	2c\	.	2.A/	-ca-	.	.	.	.
.	.	.	.	2.A/	-ca-	.	.	.	.	.	.
.	.	.	.	.	.	4G/	.	.	.	.	.
.	.	.	.	.	.	4F/	.	.	.	.	.
.	.	.	.	4G/	.	4E/	.	.	.	.	.
=103	=103	=103	=103	=103	=103	=103	=103	=103	=103	=103	=103
[0BB-	-ca-	[0F	.	4F/	.	1D	-ta	2r	.	2.d/	mun-
.	.	.	.	4E/	.	.	.	.	.	.	.
.	.	.	.	1D	-ta	.	.	2.d/	mun-	.	.
.	.	.	.	.	.	.	.	.	.	4e/	.
.	.	.	.	.	.	2d\	mun-	.	.	2f/	.
.	.	.	.	.	.	.	.	4e/	.	.	.
.	.	.	.	2d\	mun-	2B-\	.	2f/	.	2d/	.
=104.	=104.	=104.	=104.	=104.	=104.	=104.	=104.	=104.	=104.	=104.	=104.
1BB-]	.	0F]	.	2B-\	.	2.d\	.	2d/	.	2.f/	.
.	.	.	.	2.d\	.	.	.	2.f/	.	.	.
.	.	.	.	.	.	4c\	.	.	.	4g/	.
[1FF	-ta	.	.	.	.	1A	-di,	.	.	2a/	.
.	.	.	.	4c\	.	.	.	4g/	.	.	.
.	.	.	.	[2A/	-di,	.	.	2a/	.	2f/	.
=105.	=105.	=105.	=105.	=105.	=105.	=105.	=105.	=105.	=105.	=105.	=105.
0FF]	.	0F	-ta	2A/]	.	0r	.	2f/	.	2c/	.
.	.	.	.	2r	.	.	.	2c/	.	2.f/	.
.	.	.	.	1r	.	.	.	2.f/	.	.	.
.	.	.	.	.	.	.	.	.	.	4e/	.
.	.	.	.	.	.	.	.	.	.	4d/	.
.	.	.	.	.	.	.	.	4e/	.	4c/	.
=106	=106	=106	=106	=106	=106	=106	=106	=106	=106	=106	=106
0r	.	[0G	mun-	0r	.	0r	.	4d/	.	2B-/	.
.	.	.	.	.	.	.	.	4c/	.	.	.
.	.	.	.	.	.	.	.	2B-/	.	2G/	.
.	.	.	.	.	.	.	.	2G/	.	2.B-/	.
.	.	.	.	.	.	.	.	[2B-/	.	.	.
.	.	.	.	.	.	.	.	.	.	4c/	.
=107.	=107.	=107.	=107.	=107.	=107.	=107.	=107.	=107.	=107.	=107.	=107.
0r	.	0G]	.	0r	.	0r	.	4B-/]	.	2d/	.
.	.	.	.	.	.	.	.	4c/	.	.	.
.	.	.	.	.	.	.	.	2d/	.	2B-/	.
.	.	.	.	.	.	.	.	2B-/	.	2.d/	.
.	.	.	.	.	.	.	.	[2d/	.	.	.
.	.	.	.	.	.	.	.	.	.	4c/	.
=108.	=108.	=108.	=108.	=108.	=108.	=108.	=108.	=108.	=108.	=108.	=108.
0r	.	0F	.	2r	.	4F/	mun-	4d/]	.	1A	-di,
.	.	.	.	.	.	4G/	.	4c/	.	.	.
.	.	.	.	4F/	mun-	4A/	.	1A	-di,	.	.
.	.	.	.	4G/	.	4B-\	.	.	.	.	.
.	.	.	.	4A/	.	2.c\	.	.	.	1r	.
.	.	.	.	4B-\	.	.	.	.	.	.	.
.	.	.	.	[2c\	.	.	.	2r	.	.	.
.	.	.	.	.	.	4B-\	.	.	.	.	.
=109	=109	=109	=109	=109	=109	=109	=109	=109	=109	=109	=109
0r	.	0E	.	4c\]	.	2.G/	.	0r	.	0r	.
.	.	.	.	4B-\	.	.	.	.	.	.	.
.	.	.	.	2.G/	.	.	.	.	.	.	.
.	.	.	.	.	.	4A/	.	.	.	.	.
.	.	.	.	.	.	2.B-\	.	.	.	.	.
.	.	.	.	4A/	.	.	.	.	.	.	.
.	.	.	.	[2B-\	.	.	.	.	.	.	.
.	.	.	.	.	.	4A/	.	.	.	.	.
=110.	=110.	=110.	=110.	=110.	=110.	=110.	=110.	=110.	=110.	=110.	=110.
0r	.	[0D	.	4B-\]	.	1F	-di,	2r	.	2.d/	mun-
.	.	.	.	4A/	.	.	.	.	.	.	.
.	.	.	.	1F	-di,	.	.	2.d/	mun-	.	.
.	.	.	.	.	.	.	.	.	.	4e/	.
.	.	.	.	.	.	1r	.	.	.	2f/	.
.	.	.	.	.	.	.	.	4e/	.	.	.
.	.	.	.	2r	.	.	.	2f/	.	2d/	.
=111.	=111.	=111.	=111.	=111.	=111.	=111.	=111.	=111.	=111.	=111.	=111.
0r	.	0D]	.	0r	.	0r	.	2d/	.	2.f/	.
.	.	.	.	.	.	.	.	2.f/	.	.	.
.	.	.	.	.	.	.	.	.	.	4g/	.
.	.	.	.	.	.	.	.	.	.	2.a/	.
.	.	.	.	.	.	.	.	4g/	.	.	.
.	.	.	.	.	.	.	.	[2a/	.	.	.
.	.	.	.	.	.	.	.	.	.	4g/	.
=112	=112	=112	=112	=112	=112	=112	=112	=112	=112	=112	=112
0r	.	0C	-di,	2r	.	1c	mun-	4a/]	.	0e	-di,
.	.	.	s	.	.	.	.	4g/	.	.	.
.	.	.	.	1c	mun-	.	.	[1.e	-di,	.	.
.	.	.	.	.	.	2G/	.	.	.	.	.
.	.	.	.	2G/	.	[2c\	.	.	.	.	.
=113.	=113.	=113.	=113.	=113.	=113.	=113.	=113.	=113.	=113.	=113.	=113.
0r	.	0r	.	2.c\	.	4c\]	.	2e/]	.	0r	.
.	.	.	.	.	.	4B-\	.	.	.	.	.
.	.	.	.	.	.	4A/	.	2r	.	.	.
.	.	.	.	4B-\	.	4G/	.	.	.	.	.
.	.	.	.	4A/	.	2.c\	.	1r	.	.	.
.	.	.	.	4G/	.	.	.	.	.	.	.
.	.	.	.	[2c\	.	.	.	.	.	.	.
.	.	.	.	.	.	4B-\	.	.	.	.	.
=114.	=114.	=114.	=114.	=114.	=114.	=114.	=114.	=114.	=114.	=114.	=114.
0C	mun-	0r	.	4c\]	.	2G/	.	0r	.	0r	.
.	.	.	.	4B-\	.	.	.	.	.	.	.
.	.	.	.	2G/	.	2.c\	.	.	.	.	.
.	.	.	.	2.c\	.	.	.	.	.	.	.
.	.	.	.	.	.	4B-\	.	.	.	.	.
.	.	.	.	.	.	4A/	.	.	.	.	.
.	.	.	.	4B-\	.	4G/	.	.	.	.	.
=115	=115	=115	=115	=115	=115	=115	=115	=115	=115	=115	=115
[0D	.	0r	.	4A/	.	0F	-di,	1r	.	2r	.
.	.	.	.	4G/	.	.	.	.	.	.	.
.	.	.	.	[1.F	-di,	.	.	.	.	2.f/	do-
.	.	.	.	.	.	.	.	2.f/	do-	.	.
.	.	.	.	.	.	.	.	.	.	4e/	.
.	.	.	.	.	.	.	.	.	.	4d/	.
.	.	.	.	.	.	.	.	4e/	.	4c/	.
=116.	=116.	=116.	=116.	=116.	=116.	=116.	=116.	=116.	=116.	=116.	=116.
0D]	.	0r	.	2F/]	.	0r	.	4d/	.	4B-/	.
.	.	.	.	.	.	.	.	4c/	.	4A/	.
.	.	.	.	2r	.	.	.	4B-/	.	2.d/	.
.	.	.	.	.	.	.	.	4A/	.	.	.
.	.	.	.	1r	.	.	.	2.d/	.	.	.
.	.	.	.	.	.	.	.	.	.	4c/	.
.	.	.	.	.	.	.	.	.	.	4B-/	.
.	.	.	.	.	.	.	.	4c/	.	4A/	.
=117.	=117.	=117.	=117.	=117.	=117.	=117.	=117.	=117.	=117.	=117.	=117.
0E	.	0r	.	0r	.	0r	.	4B-/	.	2G/	-na
.	.	.	.	.	.	.	.	4A/	.	.	.
.	.	.	.	.	.	.	.	2G/	-na	4g/	no-
.	.	.	.	.	.	.	.	.	.	4f/	.
.	.	.	.	.	.	.	.	4g/	no-	4e/	.
.	.	.	.	.	.	.	.	4f/	.	4d/	.
.	.	.	.	.	.	.	.	4e/	.	[2c/	-bis
.	.	.	.	.	.	.	.	4d/	.	.	.
=118	=118	=118	=118	=118	=118	=118	=118	=118	=118	=118	=118
0F	.	0r	.	0r	.	0r	.	1c	-bis	2c/]	.
.	.	.	.	.	.	.	.	.	.	2.f/	pa-
.	.	.	.	.	.	.	.	2.f/	pa-	.	.
.	.	.	.	.	.	.	.	.	.	4e/	.
.	.	.	.	.	.	.	.	.	.	4d/	.
.	.	.	.	.	.	.	.	4e/	.	4c/	.
=119.	=119.	=119.	=119.	=119.	=119.	=119.	=119.	=119.	=119.	=119.	=119.
[0G	.	0r	.	2r	.	2G/	do-	4d/	.	1B-	-cem,
.	.	.	.	.	.	.	.	4c/	.	.	.
.	.	.	.	2G/	do-	2d\	-na	1B-	-cem,	.	.
.	.	.	.	2d\	-na	2B-\	no-	.	.	1r	.
.	.	.	.	2B-\	no-	2G/	-bis,	2r	.	.	.
=120.	=120.	=120.	=120.	=120.	=120.	=120.	=120.	=120.	=120.	=120.	=120.
0G]	.	0r	.	2G/	-bis	2d\	do-	0r	.	0r	.
.	.	.	.	2d\	do-	2B-\	-na	.	.	.	.
.	.	.	.	2B-\	-na	2.d\	no-	.	.	.	.
.	.	.	.	[2d\	no-	.	.	.	.	.	.
.	.	.	.	.	.	4c\	.	.	.	.	.
=121	=121	=121	=121	=121	=121	=121	=121	=121	=121	=121	=121
0F	-di,	[0FF	do-	4d\]	.	2A/	-bis	0r	.	0r	.
.	.	.	.	4c\	.	.	.	.	.	.	.
.	.	.	.	2A/	-bis	2.c\	pa-	.	.	.	.
.	.	.	.	2.c\	pa-	.	.	.	.	.	.
.	.	.	.	.	.	4B-\	.	.	.	.	.
.	.	.	.	.	.	4A/	.	.	.	.	.
.	.	.	.	4B-\	.	4G/	.	.	.	.	.
=122.	=122.	=122.	=122.	=122.	=122.	=122.	=122.	=122.	=122.	=122.	=122.
[0F	do-	1FF]	.	4A/	.	2A/	.	0r	.	0r	.
.	.	.	.	4G/	.	.	.	.	.	.	.
.	.	.	.	2A/	.	2.F/	.	.	.	.	.
.	.	[1BB-	.	2.F/	.	.	.	.	.	.	.
.	.	.	.	.	.	4E/	.	.	.	.	.
.	.	.	.	.	.	4D/	.	.	.	.	.
.	.	.	.	4E/	.	4C/	.	.	.	.	.
=123.	=123.	=123.	=123.	=123.	=123.	=123.	=123.	=123.	=123.	=123.	=123.
0F]	.	0BB-]	.	4D/	.	1D	-cem,	0r	.	0r	.
.	.	.	.	4C/	.	.	.	.	.	.	.
.	.	.	.	1D	-cem,	.	.	.	.	.	.
.	.	.	.	.	.	1r	.	.	.	.	.
.	.	.	.	2r	.	.	.	.	.	.	.
=124	=124	=124	=124	=124	=124	=124	=124	=124	=124	=124	=124
[0C	-na	[0AA	-na	0r	.	0r	.	0r	.	0r	.
=125.	=125.	=125.	=125.	=125.	=125.	=125.	=125.	=125.	=125.	=125.	=125.
1C]	.	1AA]	.	0r	.	0r	.	0r	.	0r	.
[1D	no-	[1GG	no-	.	.	.	.	.	.	.	.
=126.	=126.	=126.	=126.	=126.	=126.	=126.	=126.	=126.	=126.	=126.	=126.
0D]	.	0GG]	.	0r	.	0r	.	0r	.	0r	.
=127	=127	=127	=127	=127	=127	=127	=127	=127	=127	=127	=127
[0F	-bis	[0FF	-bis	0r	.	0r	.	2r	.	4A/	do-
.	.	.	.	.	.	.	.	.	.	4B-/	.
.	.	.	.	.	.	.	.	4A/	do-	4c/	.
.	.	.	.	.	.	.	.	4B-/	.	4d/	.
.	.	.	.	.	.	.	.	4c/	.	2c/	.
.	.	.	.	.	.	.	.	4d/	.	.	.
.	.	.	.	.	.	.	.	2c/	.	2A/	-na
=128.	=128.	=128.	=128.	=128.	=128.	=128.	=128.	=128.	=128.	=128.	=128.
1F]	.	1FF]	.	0r	.	0r	.	2A/	-na	2.c/	no-
.	.	.	.	.	.	.	.	2.c/	no-	.	.
.	.	.	.	.	.	.	.	.	.	4B-/	.
[1E	pa-	[1C	pa-	.	.	.	.	.	.	2G/	-bis
.	.	.	.	.	.	.	.	4B-/	.	.	.
.	.	.	.	.	.	.	.	2G/	-bis	[2g/	pa-
=129.	=129.	=129.	=129.	=129.	=129.	=129.	=129.	=129.	=129.	=129.	=129.
0E]	.	0C]	.	0r	.	0r	.	2.g/	pa-	4g/]	.
.	.	.	.	.	.	.	.	.	.	4f/	.
.	.	.	.	.	.	.	.	.	.	4e/	.
.	.	.	.	.	.	.	.	4f/	.	4d/	.
.	.	.	.	.	.	.	.	4e/	.	1c	-cem,
.	.	.	.	.	.	.	.	4d/	.	.	.
.	.	.	.	.	.	.	.	[2c/	-cem,	.	.
=130	=130	=130	=130	=130	=130	=130	=130	=130	=130	=130	=130
0F	.	[0FF	-cem,	2r	.	4A/	do-	2c/]	.	0r	.
.	.	.	.	.	.	4B-\	.	.	.	.	.
.	.	.	.	4A/	do-	4c\	.	2r	.	.	.
.	.	.	.	4B-\	.	4d\	.	.	.	.	.
.	.	.	.	4c\	.	2c\	-na	1r	.	.	.
.	.	.	.	4d\	.	.	.	.	.	.	.
.	.	.	.	2c\	.	2A/	.	.	.	.	.
=131.	=131.	=131.	=131.	=131.	=131.	=131.	=131.	=131.	=131.	=131.	=131.
[0F	-cem,	0FF]	.	2A/	-na	0r	.	2r	.	4A/	do-
.	.	.	.	.	.	.	.	.	.	4B-/	.
.	.	.	.	2r	.	.	.	4A/	do-	4c/	.
.	.	.	.	.	.	.	.	4B-/	.	4d/	.
.	.	.	.	1r	.	.	.	4c/	.	2c/	.
.	.	.	.	.	.	.	.	4d/	.	.	.
.	.	.	.	.	.	.	.	2c/	.	2A/	-na,
=132.	=132.	=132.	=132.	=132.	=132.	=132.	=132.	=132.	=132.	=132.	=132.
0F]	.	0r	.	2r	.	4F/	no-	2A/	-na,	0r	.
.	.	.	.	.	.	4G/	.	.	.	.	.
.	.	.	.	4F/	no-	4A/	.	2r	.	.	.
.	.	.	.	4G/	.	4B-\	.	.	.	.	.
.	.	.	.	4A/	.	2.c\	.	1r	.	.	.
.	.	.	.	4B-\	.	.	.	.	.	.	.
.	.	.	.	[2c\	.	.	.	.	.	.	.
.	.	.	.	.	.	4B-\	.	.	.	.	.
=133	=133	=133	=133	=133	=133	=133	=133	=133	=133	=133	=133
0r	.	[0C	do-	4c\]	.	1G	-bis,	2r	.	4e/	do-
.	.	.	.	4B-\	.	.	.	.	.	4f/	.
.	.	.	.	1G	-bis,	.	.	4e/	do-	4g/	.
.	.	.	.	.	.	.	.	4f/	.	4a/	.
.	.	.	.	.	.	1r	.	4g/	.	2g/	.
.	.	.	.	.	.	.	.	4a/	.	.	.
.	.	.	.	2r	.	.	.	2g/	.	2e/	-na,
=134.	=134.	=134.	=134.	=134.	=134.	=134.	=134.	=134.	=134.	=134.	=134.
0r	.	0C]	.	2r	.	4E/	do-	2e/	-na,	0r	.
.	.	.	.	.	.	4F/	.	.	.	.	.
.	.	.	.	4E/	do-	4G/	.	2r	.	.	.
.	.	.	.	4F/	.	4A/	.	.	.	.	.
.	.	.	.	4G/	.	2G/	.	1r	.	.	.
.	.	.	.	4A/	.	.	.	.	.	.	.
.	.	.	.	2G/	.	2E/	-na	.	.	.	.
=135.	=135.	=135.	=135.	=135.	=135.	=135.	=135.	=135.	=135.	=135.	=135.
0r	.	0C	-na	2E/	-na	2.c\	no-	2r	.	4c/	do-
.	.	.	.	.	.	.	.	.	.	4d/	.
.	.	.	.	2.c\	no-	.	.	4c/	do-	4e/	.
.	.	.	.	.	.	4B-\	.	4d/	.	4f/	.
.	.	.	.	.	.	2.G/	.	4e/	.	2.g/	.
.	.	.	.	4B-\	.	.	.	4f/	.	.	.
.	.	.	.	[2G/	.	.	.	[2g/	.	.	.
.	.	.	.	.	.	4A/	.	.	.	4f/	.
=136	=136	=136	=136	=136	=136	=136	=136	=136	=136	=136	=136
0r	.	[0BB-	no-	4G/]	.	2.B-\	.	4g/]	.	2.d/	.
.	.	.	.	4A/	.	.	.	4f/	.	.	.
.	.	.	.	2.B-\	.	.	.	2.d/	.	.	.
.	.	.	.	.	.	4A/	.	.	.	4e/	.
.	.	.	.	.	.	2F/	-bis,	.	.	2f/	.
.	.	.	.	4A/	.	.	.	4e/	.	.	.
.	.	.	.	2F/	-bis,	2r	.	2f/	.	2d/	-na
=137.	=137.	=137.	=137.	=137.	=137.	=137.	=137.	=137.	=137.	=137.	=137.
0r	.	1BB-]	.	2r	.	2.F/	no-	2d/	-na	2.f/	no-
.	.	.	.	2.F/	no-	.	.	2.f/	no-	.	.
.	.	.	.	.	.	4G/	.	.	.	4e/	.
.	.	[1AA	-bis	.	.	2.A/	.	.	.	1c	-bis,
.	.	.	.	4G/	.	.	.	4e/	.	.	.
.	.	.	.	[2A/	.	.	.	[2c/	-bis,	.	.
.	.	.	.	.	.	4G/	.	.	.	.	.
=138.	=138.	=138.	=138.	=138.	=138.	=138.	=138.	=138.	=138.	=138.	=138.
0r	.	0AA]	.	4A/]	.	2E/	-bis,	2c/]	.	0r	.
.	.	.	.	4G/	.	.	.	.	.	.	.
.	.	.	.	2E/	-bis,	2r	.	2r	.	.	.
.	.	.	.	2r	.	2.E/	no-	1r	.	.	.
.	.	.	.	[2E/	no-	.	.	.	.	.	.
.	.	.	.	.	.	4F/	.	.	.	.	.
=139	=139	=139	=139	=139	=139	=139	=139	=139	=139	=139	=139
0r	.	[0GG	pa-	4E/]	.	2.G/	.	2r	.	2.B-/	do-
.	.	.	.	4F/	.	.	.	.	.	.	.
.	.	.	.	2.G/	.	.	.	2.B-/	do-	.	.
.	.	.	.	.	.	4F/	.	.	.	4c/	.
.	.	.	.	.	.	2D/	-bis,	.	.	2d/	.
.	.	.	.	4F/	.	.	.	4c/	.	.	.
.	.	.	.	2D/	-bis,	2r	.	2d/	.	2B-/	-na
=140.	=140.	=140.	=140.	=140.	=140.	=140.	=140.	=140.	=140.	=140.	=140.
0r	.	1GG]	.	2r	.	2.D/	no-	2B-/	-na	2.d/	no-
.	.	.	.	2.D/	no-	.	.	2.d/	no-	.	.
.	.	.	.	.	.	4E/	.	.	.	4c/	.
.	.	[1FF	.	.	.	2.F/	.	.	.	2.A/	.
.	.	.	.	4E/	.	.	.	4c/	.	.	.
.	.	.	.	[2F/	.	.	.	[2A/	.	.	.
.	.	.	.	.	.	4E/	.	.	.	4B-/	.
=141.	=141.	=141.	=141.	=141.	=141.	=141.	=141.	=141.	=141.	=141.	=141.
0r	.	0FF]	.	4F/]	.	2C/	-bis	4A/]	.	2c/	.
.	.	.	.	4E/	.	.	.	4B-/	.	.	.
.	.	.	.	2C/	-bis	2.F/	pa-	2c/	.	2A/	.
.	.	.	.	2.F/	pa-	.	.	2A/	.	2c/	.
.	.	.	.	.	.	4G/	.	.	.	.	.
.	.	.	.	.	.	4A/	.	2c/	.	2F/	-bis,
.	.	.	.	4G/	.	4B-\	.	.	.	.	.
=142	=142	=142	=142	=142	=142	=142	=142	=142	=142	=142	=142
[0C	do-	[0FF	-cem,	4A/	.	2c\	.	2F/	-bis,	2r	.
.	.	.	.	4B-\	.	.	.	.	.	.	.
.	.	.	.	2c\	.	2F/	-cem,	2r	.	1A	do-
.	.	.	.	2F/	-cem,	2r	.	1A	do-	.	.
.	.	.	.	2r	.	[2A/	do-	.	.	2F/	-na
=143.	=143.	=143.	=143.	=143.	=143.	=143.	=143.	=143.	=143.	=143.	=143.
1C]	.	0FF]	.	1A	do-	2A/]	.	2F/	-na	2.c/	no-
.	.	.	.	.	.	2F/	-na	2.c/	no-	.	.
.	.	.	.	.	.	.	.	.	.	4B-/	.
[1F	-na	.	.	2F/	-na	2.c\	no-	.	.	4A/	.
.	.	.	.	.	.	.	.	4B-/	.	4G/	.
.	.	.	.	[2c\	no-	.	.	4A/	.	2F/	-bis
.	.	.	.	.	.	4B-\	.	4G/	.	.	.
=144.	=144.	=144.	=144.	=144.	=144.	=144.	=144.	=144.	=144.	=144.	=144.
0F]	.	0r	.	4c\]	.	4A/	.	2F/	-bis	2r	.
.	.	.	.	4B-\	.	4G/	.	.	.	.	.
.	.	.	.	4A/	.	2F/	-bis	2r	.	2c/	pa-
.	.	.	.	4G/	.	.	.	.	.	.	.
.	.	.	.	2F/	-bis	2r	.	2c/	pa-	2A/	.
.	.	.	.	2r	.	[2C/	pa-	2A/	.	2c/	.
=145	=145	=145	=145	=145	=145	=145	=145	=145	=145	=145	=145
0E	no-	[0C	pa-	2.C/	pa-	4C/]	.	2c/	.	2G/	.
.	.	.	.	.	.	4D/	.	.	.	.	.
.	.	.	.	.	.	4E/	.	2G/	.	2.c/	.
.	.	.	.	4D/	.	4F/	.	.	.	.	.
.	.	.	.	4E/	.	2G/	.	2.c/	.	.	.
.	.	.	.	4F/	.	.	.	.	.	4d/	.
.	.	.	.	2G/	.	2C/	-cem,	.	.	4e/	.
.	.	.	.	.	.	.	.	4d/	.	4f/	.
=146.	=146.	=146.	=146.	=146.	=146.	=146.	=146.	=146.	=146.	=146.	=146.
[0E	-bis	0C]	.	2C/	-cem,	2r	.	4e/	.	2g/	.
.	.	.	.	.	.	.	.	4f/	.	.	.
.	.	.	.	2r	.	2G/	do-	2g/	.	2c/	-cem,
.	.	.	.	2G/	do-	2E/	-na	2c/	-cem,	2r	.
.	.	.	.	2E/	-na	2G/	no-	2r	.	[2g/	pa-
=147.	=147.	=147.	=147.	=147.	=147.	=147.	=147.	=147.	=147.	=147.	=147.
0E]	.	0C	-cem.	2G/	no-	2C/	-bis	2.g/	pa-	4g/]	.
.	.	.	.	.	.	.	.	.	.	4f/	.
.	.	.	.	2C/	-bis	2r	.	.	.	4e/	.
.	.	.	.	.	.	.	.	4f/	.	4d/	.
.	.	.	.	2r	.	2.c\	pa-	4e/	.	2e/	.
.	.	.	.	.	.	.	.	4d/	.	.	.
.	.	.	.	[2c\	pa-	.	.	2e/	.	2c/	-cem,
.	.	.	.	.	.	4B-\	.	.	.	.	.
=148	=148	=148	=148	=148	=148	=148	=148	=148	=148	=148	=148
0F	pa-	[0FFl	.	4c\]	.	4A/	.	2c/	-cem,	2r	.
.	.	.	.	4B-\	.	4G/	.	.	.	.	.
.	.	.	.	4A/	.	2A/	.	2r	.	2.c/	pa-
.	.	.	.	4G/	.	.	.	.	.	.	.
.	.	.	.	2A/	.	2F/	.	2.c/	pa-	.	.
.	.	.	.	.	.	.	.	.	.	4B-/	.
.	.	.	.	2F/	.	2c\	-cem,	.	.	4A/	.
.	.	.	.	.	.	.	.	4B-/	.	4G/	.
=149.	=149.	=149.	=149.	=149.	=149.	=149.	=149.	=149.	=149.	=149.	=149.
[0Fl	-cem.	0FF_	.	2c\	-cem,	2r	.	4A/	.	2A/	.
.	.	.	.	.	.	.	.	4G/	.	.	.
.	.	.	.	2r	.	2.c\	pa-	2A/	.	2F/	.
.	.	.	.	2.c\	pa-	.	.	2F/	.	2.A/	.
.	.	.	.	.	.	4B-\	.	.	.	.	.
.	.	.	.	.	.	4A/	.	[2A/	.	.	.
.	.	.	.	4B-\	.	4G/	.	.	.	4B-/	.
=150.	=150.	=150.	=150.	=150.	=150.	=150.	=150.	=150.	=150.	=150.	=150.
0F]	.	0FF]	.	4A/	.	0Al	-cem.	4A/]	.	0cl	-cem.
.	.	.	.	4G/	.	.	.	4B-/	.	.	.
.	.	.	.	1.Al	-cem.	.	.	1.cl	-cem.	.	.
==	==	==	==	==	==	==	==	==	==	==	==
*rscale:1	*	*rscale:1	*	*	*	*	*	*	*	*	*
*-	*-	*-	*-	*-	*-	*-	*-	*-	*-	*-	*-
!!!RDF**kern: l=long note in original notation
!!!RDF**kern: i=editorial accidental
!!!ENC: Jesse Rodin; Victoria Chang 2011/09/04
!!!END: 2011/09/04/
!!!SMS: Jesse Rodin edition
!!!EED: Jesse Rodin
!!!EEV: 2013/10/25/
!!attribution-level@Jos: 1 (secure, core group [checkmark])
!!!ONB: Translated from MusicXML and edited on 2011/10/04/ by Craig Sapp
!!muse2ps: T^@{OPR}^u^@{ONM}{. }@{OTL}^C^@{COM}^i2I150v85,85,85,85,85,100z18l2550t200c122
